archdroid-icon-theme/Archdroid-Lime/status/scalable/printer-error.svg

<svg fill="#CDDC39" height="48" viewBox="0 0 48 48" width="48" xmlns="http://www.w3.org/2000/svg"><path d="m4.988281 2.160156-2.828125 2.828125 11.011719 11.011719h-3.171875c-3.31 0-6 2.69-6 6v12h8v8h24v-3.171875l7.171875 7.171875 2.828125-2.828125-9.171875-9.171875-4.828125-4.828125-1.171875-1.171875-12-12-2-2-4.828125-4.828125zm9.498047 3.839844 8 8h13.513672v-8zm10 10 17.998047 18h1.515625v-12c0-3.31-2.69-6-6-6zm13.513672 4c1.11 0 2 .89 2 2s-.89 2-2 2-2-.89-2-2 .89-2 2-2zm-22 8h9.171875l6.828125 6.828125v3.171875h-16z" fill="#CDDC39"/></svg>

<svg fill="#CDDC39" height="48" version="1.1" viewBox="0 0 48 48" width="48" xmlns="http://www.w3.org/2000/svg"><path d="M4.988281 2.160156L2.160156 4.988281 13.171875 16 10 16C6.69 16 4 18.69 4 22L4 34 12 34 12 42 36 42 36 38.828125 43.171875 46 46 43.171875 36.828125 34 32 29.171875 30.828125 28 18.828125 16 16.828125 14 12 9.171875 4.988281 2.160156zM14.486328 6L22.486328 14 36 14 36 6 14.486328 6zM24.486328 16L42.484375 34 44 34 44 22C44 18.69 41.31 16 38 16L24.486328 16zM38 20C39.11 20 40 20.89 40 22 40 23.11 39.11 24 38 24 36.89 24 36 23.11 36 22 36 20.89 36.89 20 38 20zM16 28L25.171875 28 32 34.828125 32 38 16 38 16 28z" fill="#CDDC39"/></svg>
